!!!COM:	Bach, Johann Sebastian
!!!CDT:	1685/02/21/-1750/07/28/
!!!OTL@@DE:	Aus meines Herzens Grunde
!!!OTL@EN:      From the Depths of My Heart
!!!SCT:	BWV 269
!!!PC#:	1
!!!AGN:	chorale
**harm	**kern	**kern	**kern	**kern
*	*ICvox	*ICvox	*ICvox	*ICvox
*	*Ibass	*Itenor	*Ialto	*Isoprn
*	*I"Bass	*I"Tenor	*I"Alto	*I"Soprano
*>[A,A,B]	*>[A,A,B]	*>[A,A,B]	*>[A,A,B]	*>[A,A,B]
*>norep[A,B]	*>norep[A,B]	*>norep[A,B]	*>norep[A,B]	*>norep[A,B]
*>A	*>A	*>A	*>A	*>A
*	*	*oclefC4	*oclefC3	*oclefC1
*	*clefF4	*clefGv2	*clefG2	*clefG2
*k[f#]	*k[f#]	*k[f#]	*k[f#]	*k[f#]
*G:	*G:	*G:	*G:	*G:
*M3/4	*M3/4	*M3/4	*M3/4	*M3/4
*MM100	*MM100	*MM100	*MM100	*MM100
I	4GG	4B	4d	4g
=1	=1	=1	=1	=1
I	4G	4B	4d	4g
IV6	4E	4c	4e	4g
V6	4F#	4A	4d	4dd
=2	=2	=2	=2	=2
I	4G	4G	4d	4b
V	4D	4F#	4d	4a
vi	4E	4G	4B	4g
=3	=3	=3	=3	=3
IV	4C	4c	4e	4g
IV2	8BBL	8cL	8eL	8gL
viio6	8AAJ	8cJ	8f#J	8aJ
I	4GG	4d	4g	4b
=4	=4	=4	=4	=4
V;	2D;	2d;	2f#;	2a;
I	4GG	4d	4g	4b
=5	=5	=5	=5	=5
V6	4FF#	4A	4d	4dd
vi65	4GG	4B	4e	4dd
viio6	4AA	4c	4f#	4cc
=6	=6	=6	=6	=6
I6	4BB	4d	4g	4b
ii65	4C	4e	4g	4a
V7	4DJ	4cJ	4f#J	4aJ
=7	=7	=7	=7	=7
I;	2GG;	2B;	2d;	2g;
*>B	*>B	*>B	*>B	*>B
I	4GG	4d	4g	4b
=8	=8	=8	=8	=8
I	4GG	4d	4g	4b
viio6	4AA	4c	4f#	4cc
I6	4BB	4B	4g	4dd
=9	=9	=9	=9	=9
I6	4BB	4B	4g	4dd
I6	8BBL	8dL	8gL	8ddL
V43	8AAJ	8dJ	8f#J	8ccJ
I	4GG	4d	4g	4b
=10	=10	=10	=10	=10
V;	2D;	2d;	2f#;	2a;
vi	4E	4B	4e	4g
=11	=11	=11	=11	=11
vi	4E	4G	4e	4b
iii6	4D	4B	4f#	4b
ii6	4C	4e	4a	4cc
=12	=12	=12	=12	=12
I6	2BB	2d	2g	2dd
V7	4D	4d	4f#	4cc
=13	=13	=13	=13	=13
I	4GG	4d	4g	4b
I6	4BB	4d	4g	4b
V7/IV	4GG	4d	4fn	4b
=14	=14	=14	=14	=14
IV	2C;	2c;	2e;	2g;
I	4GG	4d	4g	4b
=15	=15	=15	=15	=15
V65	4FF#	4c	4a	4dd
I	4GG	4B	4g	4dd
viio6	4AA	4c	4f#	4cc
=16	=16	=16	=16	=16
I6	4BB	4d	4g	4b
I	4GG	4d	4g	4b
V7	4D	4c	4f#	4a
=17	=17	=17	=17	=17
vi	4E	4B	4e	4g
IV	4C	4c	4e	4g
I	4GG	4d	4g	4b
=18	=18	=18	=18	=18
V	2D;	2d;	2f#;	2a;
I	4G	4d	4g	4b
=19	=19	=19	=19	=19
V6	2F#	2d	2a	2dd
IV6	4E	4e	4g	4cc
=20	=20	=20	=20	=20
vi	4E	4e	4g	4b
ii65	4C	4e	4g	4a
V7	4D	4c	4f#	4a
=21	=21	=21	=21	=21
I	2GG;	2B;	2d;	2g;
==	==	==	==	==
*-	*-	*-	*-	*-
!!!YOR1: 371 vierstimmige Choralges&auml;nge von Johann Sebastian Bach, 
!!!YOR2: 4th ed. by Alfred D&ouml;rffel (Leipzig: Breitkopf und H&auml;rtel, 
!!!YOR3: c.1875). 178 pp. Plate "V.A.10".  reprint: J.S. Bach, 371 Four-Part 
!!!YOR4: Chorales (New York: Associated Music Publishers, Inc., c.1940).
!!!SMS: B&H, 4th ed, Alfred D&ouml;rffel, c.1875, plate V.A.10
!!!EED:  Craig Stuart Sapp
!!!EEV:  2009/05/22
